X:442
T:Durham Rangers
M:4/4
L:1/8
K:D
FG | ABAF A2 de | fgef d2 dA | BcdB ABAF | G2 E2 E2 FG | 
ABAF A2 de | fgef d2 dA | BcdB ABAG | F2 E2 D2 :| 
ag | fefg afdf | edcB Adfa | g2 bg f2 af | g2 e2 e2 FG | 
ABAF A2 de | fgef d2 dA | BcdB ABAG | F2 E2 D2 :| 

